X:1
T:Title
%%score { ( 1 3 ) | ( 2 4 ) }
L:1/8
M:3/4
K:Db
V:1 treble nm="Grand Piano"
V:3 treble 
V:2 bass 
V:4 bass 
V:1
 z2 z[Q:1/4=80] [Fd] [Fc]>[GB] | [GB]3 [DF] [FA]>[FB] | [Gc]3 e d>c | c3 G [GB]>[FA] | %4
[M:3/8] [DF]3 | [FA][FA]>[EF=A] |[M:3/4] [DFB]3 F c>F | [Fd]3 B B>B | c3 B c>d |[M:9/16] e4- e/ | %10
[M:3/8] [Fd][Ec]>[EG] |[M:3/4] [Gc]3 [GB] [FB]<F | A3 [FA] [GA]>[GB] | A3 E A>B | %14
[M:9/16] [GA]4- [GA]/ |[M:7/16] [Fd]3/2[Ec]>[EG] |[M:3/4] [Gc]3 [GB] [FB]>[FA] | %17
[M:15/16] [_Fd]3/2- [Fd]3 [Fd][=Fd]/-[Fd]/[Fd] | %18
[M:27/32] [Fd]/-<[Fd]/[DFA]/4-[DFA]/4-[DFA]/4-[DFA]/4-[DFA]/4-[DFA]/4-[DFA]/4-[DFA]/4-[DFA]/-<[DFA]/[A,CGA]/ z/4 z/4 z/4 z/4 z/4 z/4 z/4 z/ | %19
[M:9/16] [DFd]4- [DFd]/ |] %20
V:2
 z2 z [D,A,] [D,A,]>[D,D] | [D,D]3 [D,A,] [D,D]>[D,A,] | [E,A,]3[K:treble] [A,CG] [A,EG]>[A,EG] | %3
 [A,EG]3 [A,CE][K:bass] [D,D]>[D,D] |[M:3/8] [D,A,]3 | [D,D][D,D]>C, | %6
[M:3/4] B,,3 [D,B,] [F,=A,F]>[F,A,] | [B,,B,]3 [E,=G,E] [E,G,E]>[E,G,E] | %8
 [A,E]3 [E,=G,E][K:treble] [A,E]>[A,F] |[M:9/16] [A,CG]4- [A,CG]/ | %10
[M:3/8][K:bass] [D,A,][A,,A,]>[C,A,] |[M:3/4] [E,A,]3 [A,,A,] [D,A,]<[D,A,D] | %12
 [D,D]3 [D,D] [E,C]>[E,C] | [A,CG]3 [G,A,C] [F,A,D]>[F,D] |[M:9/16] [E,C]4- [E,C]/ | %15
[M:7/16] [D,A,]3/2[A,,A,]>[C,A,] |[M:3/4] [E,A,]3 [A,,A,] [D,A,]>[C,A,] | %17
[M:15/16] [B,,=G,]3/2- [B,,G,]3 [B,,G,][A,,A,]/-[A,,A,]/[A,,A,] | %18
[M:27/32] [A,,A,]/-<[A,,A,]/A,,/4-A,,/4-A,,/4-A,,/4-A,,/4-A,,/4-A,,/4-A,,/4-A,,/-<A,,/A,,/ z/4 z/4 z/4 z/4 z/4 z/4 z/4 z/ | %19
[M:9/16] D,4- D,/ |] %20
V:3
 x6 | x6 | x6 | x6 |[M:3/8] x3 | x3 |[M:3/4] x6 | x6 | x6 |[M:9/16] x9/2 |[M:3/8] x3 |[M:3/4] x6 | %12
 x6 | x6 |[M:9/16] x9/2 |[M:7/16] x7/2 |[M:3/4] x6 |[M:15/16] x15/2 | %18
[M:27/32] z/4 z/4 z/4 z/4 z/4 z/4 z/4 z/4 z/4 z/4 z/4 z/4 z/4 z/4 z/4 z/4 z/ [A,CGe]/4-[A,CGe]/4-[A,CGe]/4-[A,CGe]/4-[A,CGe]/4-[A,CGe]/-<[A,CGe]/- | %19
[M:9/16] [A,CGe]3/4 z/4 z/ z3/2 z3/2 |] %20
V:4
 x6 | x6 | x3[K:treble] x3 | x4[K:bass] x2 |[M:3/8] x3 | x3 |[M:3/4] x6 | x6 | x4[K:treble] x2 | %9
[M:9/16] x9/2 |[M:3/8][K:bass] x3 |[M:3/4] x6 | x6 | x6 |[M:9/16] x9/2 |[M:7/16] x7/2 |[M:3/4] x6 | %17
[M:15/16] x15/2 | %18
[M:27/32] z/4 z/4 z/4 z/4 z/4 z/4 z/4 z/4 z/4 z/4 z/4 z/4 z/4 z/4 z/4 z/4 z/ A,,/4-A,,/4-A,,/4-A,,/4-A,,/4-A,,/-<A,,/- | %19
[M:9/16] A,,3/4 z/4 z/ z3/2 z3/2 |] %20

